X: 3504
T: Biddy Martin's
R: polka
M: 2/4
K: Dmajor
Be ef|ed f/e/d|Be eA|d2 f/e/d|
Be ef|ed f/e/d|Be eA|d2 f/e/d:|
f/e/f f/a/f|ed f/e/d|f/e/f af|e2 fe/d/|
f/e/f f/a/f|ed f/e/d|Be eA|d2 f/e/d:|

